X: 0
T: Klövsjö brudmarsch 
R: marsch
O: Klövsjö, Jämtland
M: 2/4 
L: 1/16 
Q: 78
C: Trad.
C: Arr. Alfred Rönnqvist
S: Olof Rönnqvist, Vigge.
N: Spelad av Olof RÃ¶nnqvist, Vigge. Uppteckning och arrangemang av Alfred Rönnqvist.
Z: Transcribed to fit on Sackpipa Joseph Persie 
F: https://www.youtube.com/watch?v=fMnYKqbQTZM
K:G fgp=1
Bc |: d4 d2ed | B4 G2AB | c2cc (c2e2) | c4 c2B2 | A4 A2G2 | 
F2>E2 D2EF | G2(Ac) B2AF |1 G6Bc :|2 G6D2 |
K:C
|: (G2c2) c2Bc | c2G^F E2DE | D2>^F2 ^F2G2 | A6 c2 | (B2d2) d2ed | (B2>A2) G2AB | c2de e2dB |1 c6D2 :|2 D6z2 |
